public/img/panda.svg

<svg enable-background="new 0 0 333 416.2" viewBox="0 0 333 416.2" xmlns="http://www.w3.org/2000/svg"><path clip-rule="evenodd" d="m305.9 235c9.7 11.8 16.1 25.8 16.1 40.9 0 3.2 0 6.5-1.1 9.7-4.3 28-28 48.4-52.7 61.3-30.1 16.1-66.7 22.6-101.2 22.6s-72.1-6.5-102.2-22.6c-24.8-12.9-48.4-33.4-52.7-61.3 0-3.2-1.1-6.5-1.1-9.7 0-15.1 6.5-29.1 16.1-40.9-3.2-29.1 2.2-56 14-78.6-15.1-10.8-24.8-30.1-24.8-50.6 0-33.4 23.7-59.2 53.8-59.2 23.7 0 43 16.1 50.6 39.8 14-5.4 30.1-7.5 46.3-7.5s31.2 2.2 45.2 7.5c7.5-23.7 28-39.8 51.7-39.8 29.1 0 53.8 25.8 53.8 59.2 0 20.4-10.8 39.8-25.8 50.6 11.8 22.6 17.2 49.5 14 78.6zm-152.9 110.8c3.2 0 5.4-1.1 8.6-1.1v-20.4c-14-1.1-24.8-6.5-24.8-12.9 0-8.6 12.9-19.4 30.1-19.4 16.1 0 29.1 10.8 29.1 19.4 0 6.5-10.8 11.8-24.8 12.9v20.4c3.2 0 6.5 1.1 8.6 1.1 5.4 1.1 7.5 6.5 6.5 8.6 68.9-5.4 121.6-37.7 121.6-78.6 0-12.9-5.4-25.8-16.1-36.6 11.9-76.3-47.3-146.2-124.8-146.2-78.5 0-137.7 69.9-124.8 146.3-10.8 10.8-17.2 23.7-17.2 36.6 0 40.9 52.7 73.2 121.6 78.6 0-2.2 1.1-6.5 6.4-8.7zm24.8 9.7c-7.5-3.2-15.1-3.2-22.6 0h11.8zm-64.6-132.3c-3.2 1.1-5.4 4.3-5.4 7.5 0 4.3 4.3 8.6 8.6 8.6 3.2 0 6.5-2.2 7.5-5.4 3.2 10.8-4.3 21.5-16.1 21.5-8.6 0-16.1-7.5-16.1-16.1 0-11.8 10.8-19.4 21.5-16.1zm106.6 0c3.2 1.1 5.4 4.3 5.4 7.5 0 4.3-4.3 8.6-8.6 8.6-3.2 0-6.5-2.2-7.5-5.4-3.2 10.8 4.3 21.5 16.1 21.5 8.6 0 16.1-7.5 16.1-16.1 0-11.8-10.8-19.4-21.5-16.1zm4.3-34.5c21.5 0 57 26.9 59.2 61.3s-23.7 53.8-46.3 53.8c-21.5 0-56-63.5-56-85 1.1-21.5 21.6-30.1 43.1-30.1zm0 21.6c-16.1 0-28 12.9-28 29.1s11.8 29.1 28 29.1c15.1 0 28-12.9 28-29.1s-13-29.1-28-29.1zm-115.2-21.6c-21.5 0-56 26.9-59.2 61.3-2.2 34.4 24.8 53.8 46.3 53.8 22.6 0 57-63.5 56-85s-20.5-30.1-43.1-30.1zm1.1 21.6c15.1 0 28 12.9 28 29.1s-12.9 29.1-28 29.1c-16.1 0-29.1-12.9-29.1-29.1s13-29.1 29.1-29.1z" fill-rule="evenodd"/></svg>

<?xml version="1.0" encoding="utf-8"?>
<!-- Generator: Adobe Illustrator 23.0.6, SVG Export Plug-In . SVG Version: 6.00 Build 0)  -->
<svg version="1.1" id="Layer_1" xmlns="http://www.w3.org/2000/svg" xmlns:xlink="http://www.w3.org/1999/xlink" x="0px" y="0px"
	 viewBox="0 0 333 416.2" style="enable-background:new 0 0 333 416.2;" xml:space="preserve">
<style type="text/css">
	.st0{fill-rule:evenodd;clip-rule:evenodd;}
</style>
<g>
	<path class="st0" d="M305.9,235c9.7,11.8,16.1,25.8,16.1,40.9c0,3.2,0,6.5-1.1,9.7c-4.3,28-28,48.4-52.7,61.3
		c-30.1,16.1-66.7,22.6-101.2,22.6s-72.1-6.5-102.2-22.6c-24.8-12.9-48.4-33.4-52.7-61.3c0-3.2-1.1-6.5-1.1-9.7
		c0-15.1,6.5-29.1,16.1-40.9c-3.2-29.1,2.2-56,14-78.6c-15.1-10.8-24.8-30.1-24.8-50.6c0-33.4,23.7-59.2,53.8-59.2
		c23.7,0,43,16.1,50.6,39.8c14-5.4,30.1-7.5,46.3-7.5s31.2,2.2,45.2,7.5c7.5-23.7,28-39.8,51.7-39.8c29.1,0,53.8,25.8,53.8,59.2
		c0,20.4-10.8,39.8-25.8,50.6C303.7,179,309.1,205.9,305.9,235z M153,345.8c3.2,0,5.4-1.1,8.6-1.1v-20.4c-14-1.1-24.8-6.5-24.8-12.9
		c0-8.6,12.9-19.4,30.1-19.4c16.1,0,29.1,10.8,29.1,19.4c0,6.5-10.8,11.8-24.8,12.9v20.4c3.2,0,6.5,1.1,8.6,1.1
		c5.4,1.1,7.5,6.5,6.5,8.6c68.9-5.4,121.6-37.7,121.6-78.6c0-12.9-5.4-25.8-16.1-36.6C303.7,162.9,244.5,93,167,93
		C88.5,93,29.3,162.9,42.2,239.3C31.4,250.1,25,263,25,275.9c0,40.9,52.7,73.2,121.6,78.6C146.6,352.3,147.7,348,153,345.8z
		 M177.8,355.5c-7.5-3.2-15.1-3.2-22.6,0c4.3,0,7.5,0,11.8,0C170.3,355.5,173.5,355.5,177.8,355.5z M113.2,223.2
		c-3.2,1.1-5.4,4.3-5.4,7.5c0,4.3,4.3,8.6,8.6,8.6c3.2,0,6.5-2.2,7.5-5.4c3.2,10.8-4.3,21.5-16.1,21.5c-8.6,0-16.1-7.5-16.1-16.1
		C91.7,227.5,102.5,219.9,113.2,223.2z M219.8,223.2c3.2,1.1,5.4,4.3,5.4,7.5c0,4.3-4.3,8.6-8.6,8.6c-3.2,0-6.5-2.2-7.5-5.4
		c-3.2,10.8,4.3,21.5,16.1,21.5c8.6,0,16.1-7.5,16.1-16.1C241.3,227.5,230.5,219.9,219.8,223.2z M224.1,188.7
		c21.5,0,57,26.9,59.2,61.3s-23.7,53.8-46.3,53.8c-21.5,0-56-63.5-56-85C182.1,197.3,202.6,188.7,224.1,188.7z M224.1,210.3
		c-16.1,0-28,12.9-28,29.1s11.8,29.1,28,29.1c15.1,0,28-12.9,28-29.1S239.1,210.3,224.1,210.3z M108.9,188.7
		c-21.5,0-56,26.9-59.2,61.3c-2.2,34.4,24.8,53.8,46.3,53.8c22.6,0,57-63.5,56-85S131.5,188.7,108.9,188.7z M110,210.3
		c15.1,0,28,12.9,28,29.1s-12.9,29.1-28,29.1c-16.1,0-29.1-12.9-29.1-29.1S93.9,210.3,110,210.3z"/>
</g>
</svg>
